docs/img/forgetfulness.svg

<svg width="122" height="122" viewBox="0 0 122 122" fill="none" xmlns="http://www.w3.org/2000/svg">
<mask id="mask0_0_1926" style="mask-type:alpha" maskUnits="userSpaceOnUse" x="1" y="1" width="120" height="120">
<path fill-rule="evenodd" clip-rule="evenodd" d="M99.3354 22.3935L78.2656 1.32373L1.20949 78.3799L22.2793 99.4497L43.3491 120.519L120.405 43.4633L99.3354 22.3935L99.3354 22.3935Z" fill="white"/>
</mask>
<g mask="url(#mask0_0_1926)">
<path fill-rule="evenodd" clip-rule="evenodd" d="M85.49 8.54711L113.183 36.2398C117.155 40.2123 117.155 46.7137 113.182 50.6874L50.5741 113.295C46.6016 117.267 40.099 117.268 36.1265 113.296L8.43385 85.6032C4.46135 81.6307 4.46135 75.127 8.43385 71.1545L71.0413 8.54711C75.0149 4.57349 81.5175 4.57461 85.49 8.54711Z" fill="#85C12F"/>
</g>
<path fill-rule="evenodd" clip-rule="evenodd" d="M72.2457 16.9762L104.753 49.4835C105.415 50.1451 105.416 51.2283 104.753 51.8909L51.7785 104.865C51.1148 105.529 50.0315 105.528 49.37 104.867L16.8626 72.3592C16.2011 71.6977 16.2 70.6145 16.8637 69.9507L69.8383 16.9762C70.4998 16.3124 71.5842 16.3146 72.2457 16.9762Z" fill="white"/>
<path fill-rule="evenodd" clip-rule="evenodd" d="M91.5103 22.9952L98.7347 30.2196C99.3962 30.8811 99.3973 31.9643 98.7347 32.6269C98.072 33.2896 96.9877 33.2896 96.3262 32.628L89.1018 25.4037C88.4403 24.7422 88.4403 23.6578 89.103 22.9952C89.7656 22.3326 90.8488 22.3337 91.5103 22.9952ZM26.4955 89.2148L32.5151 95.2343C33.5392 96.2584 33.5381 97.8236 32.5151 98.8465C31.4921 99.8695 29.9259 99.8717 28.9018 98.8476L22.8822 92.8281C21.8593 91.8051 21.8604 90.2378 22.8834 89.2148C23.8472 88.2509 25.4726 88.1918 26.4955 89.2148Z" fill="#54750C"/>
<path fill-rule="evenodd" clip-rule="evenodd" d="M65.3819 41.406C65.383 41.9381 64.9278 42.3776 64.4102 42.3776C63.8781 42.3765 63.452 41.9392 63.452 41.406C63.4508 40.8872 63.8781 40.4332 64.4102 40.4343C64.9278 40.4343 65.3808 40.8872 65.3819 41.406ZM66.3 39.5419C66.3011 40.0606 65.8616 40.5001 65.3428 40.499C64.7962 40.499 64.3689 40.0606 64.3701 39.5419C64.3712 38.9964 64.7962 38.5691 65.3428 38.5691C65.8604 38.5691 66.3011 38.9964 66.3 39.5419ZM63.2244 41.406C63.2255 41.9381 62.7726 42.3776 62.2393 42.3776C61.7217 42.3776 61.2956 41.9381 61.2945 41.406C61.2956 40.8872 61.7217 40.4343 62.2393 40.4343C62.7726 40.4343 63.2266 40.8861 63.2244 41.406ZM65.3819 37.6108C65.3808 38.1586 64.929 38.597 64.4102 38.5981C63.877 38.5981 63.4508 38.1586 63.452 37.6108C63.4508 37.0921 63.877 36.6526 64.4102 36.6526C64.9301 36.6526 65.3819 37.091 65.3819 37.6108ZM62.2527 39.5017C62.255 40.0216 61.7998 40.4611 61.2677 40.46C60.7501 40.46 60.3239 40.0204 60.3228 39.5017C60.3228 38.9707 60.7501 38.5434 61.2677 38.5434C61.8009 38.5434 62.2527 38.9707 62.2527 39.5017ZM63.2255 37.6119C63.2255 38.1586 62.7737 38.597 62.2405 38.597C61.7217 38.5981 61.2956 38.1586 61.2956 37.6119C61.2945 37.091 61.7206 36.6537 62.2405 36.6515C62.7726 36.6526 63.2255 37.0921 63.2255 37.6119Z" fill="#54750C"/>
<path fill-rule="evenodd" clip-rule="evenodd" d="M71.3056 47.335C71.3067 47.8671 70.8515 48.3067 70.3339 48.3067C69.8018 48.3056 69.3756 47.8683 69.3756 47.335C69.3745 46.8163 69.8018 46.3623 70.3339 46.3634C70.8515 46.3634 71.3044 46.8163 71.3056 47.335ZM72.2237 45.4709C72.2248 45.9897 71.7852 46.4292 71.2665 46.4281C70.7199 46.4281 70.2926 45.9897 70.2937 45.4709C70.2949 44.9254 70.7199 44.4982 71.2665 44.4982C71.7841 44.4982 72.2248 44.9254 72.2237 45.4709ZM69.1481 47.335C69.1492 47.8671 68.6963 48.3067 68.163 48.3067C67.6454 48.3067 67.2193 47.8671 67.2181 47.335C67.2193 46.8163 67.6454 46.3634 68.163 46.3634C68.6963 46.3634 69.1503 46.8152 69.1481 47.335ZM71.3056 43.5399C71.3044 44.0876 70.8526 44.526 70.3339 44.5272C69.8007 44.5272 69.3745 44.0876 69.3756 43.5399C69.3745 43.0212 69.8007 42.5816 70.3339 42.5816C70.8538 42.5816 71.3056 43.02 71.3056 43.5399ZM68.1764 45.4308C68.1786 45.9506 67.7235 46.3901 67.1914 46.389C66.6738 46.389 66.2476 45.9495 66.2465 45.4308C66.2465 44.8998 66.6738 44.4725 67.1914 44.4725C67.7246 44.4725 68.1764 44.8998 68.1764 45.4308ZM69.1492 43.541C69.1492 44.0876 68.6974 44.526 68.1641 44.526C67.6454 44.5272 67.2193 44.0876 67.2193 43.541C67.2181 43.02 67.6443 42.5827 68.1653 42.5816C68.6963 42.5816 69.1492 43.0212 69.1492 43.541Z" fill="#54750C"/>
<path fill-rule="evenodd" clip-rule="evenodd" d="M77.5085 53.5374C77.5085 54.0706 77.0545 54.509 76.5358 54.5102C76.0036 54.509 75.5786 54.0706 75.5786 53.5374C75.5775 53.0187 76.0048 52.5646 76.5358 52.5646C77.0545 52.5657 77.5074 53.0187 77.5085 53.5374ZM78.4266 51.6733C78.4255 52.192 77.986 52.6316 77.4684 52.6316C76.9217 52.6316 76.4945 52.1931 76.4956 51.6722C76.4956 51.1278 76.9217 50.7016 77.4673 50.7005C77.986 50.7016 78.4266 51.1289 78.4266 51.6733ZM75.351 53.5374C75.351 54.0706 74.8992 54.509 74.366 54.509C73.8461 54.509 73.4211 54.0706 73.4211 53.5374C73.42 53.0187 73.8473 52.5646 74.366 52.5657C74.8981 52.5646 75.351 53.0175 75.351 53.5374ZM77.5085 49.7423C77.5074 50.29 77.0556 50.7284 76.5358 50.7284C76.0025 50.7284 75.5775 50.29 75.5786 49.7423C75.5775 49.2235 76.0025 48.7851 76.5358 48.7851C77.0556 48.7851 77.5085 49.2224 77.5085 49.7423ZM74.3794 51.6331C74.3805 52.1519 73.9254 52.5914 73.3943 52.5914C72.8756 52.5903 72.4495 52.1507 72.4495 51.6331C72.4495 51.1021 72.8745 50.6749 73.3943 50.6749C73.9276 50.6749 74.3794 51.1021 74.3794 51.6331ZM75.351 49.7423C75.3499 50.29 74.8981 50.7284 74.3671 50.7284C73.8473 50.7284 73.42 50.29 73.4211 49.7423C73.4211 49.2224 73.8473 48.7851 74.366 48.784C74.8981 48.7851 75.3522 49.2235 75.351 49.7423Z" fill="#54750C"/>
<path fill-rule="evenodd" clip-rule="evenodd" d="M83.8241 59.8553C83.8241 60.3885 83.369 60.828 82.8513 60.828C82.3203 60.828 81.8942 60.3885 81.8942 59.8553C81.8931 59.3365 82.3192 58.8836 82.8502 58.8836C83.3701 58.8836 83.8241 59.3376 83.8241 59.8553ZM84.7422 57.9912C84.7422 58.511 84.3027 58.9505 83.784 58.9494C83.2373 58.9494 82.8101 58.511 82.8123 57.9912C82.8112 57.4456 83.2373 57.0195 83.784 57.0195C84.3016 57.0195 84.7411 57.4456 84.7422 57.9912ZM81.6666 59.8553C81.6666 60.3885 81.2137 60.828 80.6805 60.828C80.1628 60.828 79.7367 60.3885 79.7367 59.8553C79.7367 59.3376 80.1617 58.8836 80.6816 58.8836C81.2148 58.8836 81.6677 59.3365 81.6666 59.8553ZM83.823 56.0612C83.823 56.6079 83.3712 57.0463 82.8513 57.0463C82.3181 57.0463 81.8931 56.6079 81.8931 56.0612C81.892 55.5425 82.3192 55.1019 82.8513 55.103C83.3701 55.1019 83.823 55.5414 83.823 56.0612ZM80.695 57.951C80.695 58.4708 80.2421 58.9104 79.7099 58.9093C79.1912 58.9104 78.7651 58.4708 78.7651 57.951C78.7651 57.42 79.1912 56.9938 79.7088 56.9938C80.2421 56.9938 80.695 57.42 80.695 57.951ZM81.6655 56.0612C81.6655 56.6079 81.2137 57.0463 80.6827 57.0463C80.1628 57.0463 79.7367 56.6067 79.7356 56.0612C79.7367 55.5425 80.1628 55.103 80.6816 55.1019C81.2137 55.103 81.6666 55.5425 81.6655 56.0612Z" fill="#54750C"/>
<path fill-rule="evenodd" clip-rule="evenodd" d="M52.0921 72.1463L50.6776 79.596L48.037 76.9555L49.1135 71.9187L44.0009 72.9194L41.4932 70.4116L48.8302 69.1098L50.17 62.1119L52.8284 64.7702L51.8087 69.373L56.4695 68.4114L58.9773 70.9192L52.0921 72.1463Z" fill="#E5352D"/>
</svg>

<svg width="122" height="122" viewBox="0 0 122 122" fill="none" xmlns="http://www.w3.org/2000/svg"><mask id="mask0_0_1926" style="mask-type:alpha" maskUnits="userSpaceOnUse" x="1" y="1" width="120" height="120"><path fill-rule="evenodd" clip-rule="evenodd" d="M99.335 22.393l-21.07-21.07L1.21 78.38l21.07 21.07 21.07 21.069 77.056-77.056-21.07-21.07z" fill="#fff"/></mask><g mask="url(#mask0_0_1926)"><path fill-rule="evenodd" clip-rule="evenodd" d="M85.49 8.547l27.693 27.693c3.972 3.972 3.972 10.474-.001 14.447l-62.608 62.608c-3.972 3.972-10.475 3.973-14.447.001L8.433 85.603c-3.973-3.972-3.973-10.476 0-14.448L71.04 8.547c3.974-3.974 10.477-3.972 14.449 0z" fill="#85C12F"/></g><path fill-rule="evenodd" clip-rule="evenodd" d="M72.246 16.976l32.507 32.508a1.706 1.706 0 010 2.407l-52.974 52.974a1.708 1.708 0 01-2.409.002L16.863 72.359a1.708 1.708 0 010-2.408l52.975-52.975a1.706 1.706 0 012.408 0z" fill="#fff"/><path fill-rule="evenodd" clip-rule="evenodd" d="M91.51 22.995l7.225 7.225a1.707 1.707 0 010 2.407 1.708 1.708 0 01-2.409.001l-7.224-7.224a1.709 1.709 0 01.001-2.409 1.707 1.707 0 012.407 0zm-65.015 66.22l6.02 6.02c1.024 1.023 1.023 2.589 0 3.612-1.023 1.023-2.59 1.025-3.613 0l-6.02-6.019c-1.023-1.023-1.022-2.59.001-3.613.964-.964 2.59-1.023 3.613 0zm38.887-47.809a.986.986 0 01-.972.972.966.966 0 01-.958-.972c-.001-.519.426-.973.958-.972.518 0 .97.453.972.972zm.918-1.864a.965.965 0 11-1.93-.015.965.965 0 011.93.015zm-3.076 1.864a.988.988 0 01-.985.972c-.517 0-.943-.44-.944-.972 0-.519.427-.972.944-.972.534 0 .988.452.985.972zm2.158-3.795a.991.991 0 01-.972.987.968.968 0 01-.958-.987.962.962 0 01.958-.958c.52 0 .972.438.972.958zm-3.13 1.89c.003.52-.452.96-.984.959a.962.962 0 01-.945-.958c0-.531.427-.959.945-.959.533 0 .985.428.985.959zm.973-1.89a.99.99 0 01-.985.986c-.518.001-.944-.438-.944-.985a.96.96 0 01.944-.96c.533 0 .985.44.985.96zm8.081 9.724a.986.986 0 01-.972.972.966.966 0 01-.958-.972.973.973 0 01.958-.972c.517 0 .97.453.972.972zm.918-1.864a.965.965 0 11-1.93-.015.965.965 0 011.93.015zm-3.076 1.864a.988.988 0 01-.985.972c-.518 0-.944-.44-.945-.972.001-.519.427-.972.945-.972.533 0 .987.452.985.972zm2.158-3.795a.991.991 0 01-.972.987.968.968 0 01-.958-.987.962.962 0 01.958-.958c.52 0 .972.438.972.958zm-3.13 1.89c.003.52-.453.96-.985.959a.962.962 0 01-.945-.958c0-.531.428-.959.945-.959.534 0 .985.428.985.959zm.973-1.889a.99.99 0 01-.985.985c-.519.001-.945-.438-.945-.985a.96.96 0 01.946-.96c.531 0 .984.44.984.96zm8.359 9.996a.988.988 0 01-.972.973.966.966 0 01-.957-.973c-.001-.518.426-.972.957-.972a.999.999 0 01.972.972zm.919-1.864a.974.974 0 01-.959.959.965.965 0 11.959-.959zm-3.076 1.864a.988.988 0 01-.985.972c-.52 0-.945-.438-.945-.972-.001-.518.426-.972.945-.971.532-.001.985.451.985.971zm2.157-3.795a.99.99 0 01-.972.986.966.966 0 01-.957-.986.96.96 0 01.957-.957c.52 0 .972.437.972.957zm-3.129 1.891c.001.519-.454.958-.985.958a.962.962 0 01-.945-.958c0-.53.425-.958.945-.958.534 0 .985.427.985.958zm.972-1.89a.992.992 0 01-.984.985c-.52 0-.947-.438-.946-.986a.96.96 0 01.945-.958c.532.001.986.44.985.958zm8.473 10.112a.988.988 0 01-.973.973.966.966 0 01-.957-.973c0-.518.425-.971.956-.971.52 0 .974.454.974.971zm.918-1.864c0 .52-.44.96-.958.958a.963.963 0 01-.972-.958.96.96 0 01.972-.971c.518 0 .957.426.958.971zm-3.075 1.864a.99.99 0 01-.987.973c-.517 0-.943-.44-.943-.973 0-.517.425-.971.945-.971.533 0 .986.453.985.971zm2.156-3.794a.988.988 0 01-.972.985.968.968 0 01-.958-.985.962.962 0 01.958-.958c.52-.001.972.438.972.958zm-3.128 1.89c0 .52-.453.96-.985.958a.959.959 0 01-.001-1.915c.533 0 .986.426.986.957zm.97-1.89a.99.99 0 01-.982.985c-.52 0-.946-.44-.947-.985a.964.964 0 01.946-.96c.532.002.985.441.983.96z" fill="#54750C"/><path fill-rule="evenodd" clip-rule="evenodd" d="M52.092 72.146l-1.414 7.45-2.641-2.64 1.077-5.037-5.113 1-2.508-2.507 7.337-1.302 1.34-6.998 2.658 2.658-1.02 4.603 4.661-.962 2.508 2.508-6.885 1.227z" fill="#E5352D"/></svg>
